X: 752
T: Old Mother Flanagan
B: jims roots
M:C|
L:1/8
R: reel
Q: 1/4=100
K:A
V:1 
%N: Compare Greenfields of America and Off to California.
|: "A"a2a2 fecd | efec "(E)"BAFG | "A"ABAF EFAB |
[1 cBcd "E7"e4 :|[2 "E7"cAB2 "A"A4 |: "A"ABAF EFAB |
c2cA "(E)"BAFG | "A"ABAF EFAB | cBcd "E7"e4 |
"D"f2fd "A"efec | "Bm"BcBA "E7"FEFG | "A"ABAF EFAB | "E7"cAB2 "A"A4 :|
% abcbook-tune_id 6298c279e9e3af51dede8eb9


% abcbook-boost 0
% abcbook-tablature 
% abcbook-transpose 
% abcbook-lastupdated 1654178426028
% abcbook-soundfonts 
% abcbook-repeats 1


